X:1
T:月亮代表我的心
M:4/4
L:1/8
V:1
Q:1/4=80
K:C
|z6zG,|C3EG3C|B,3EG2zG|A3Bc3A|
|G6ED|C3CC2ED|C3CC2DE|D3CA,2DE|
|D6EG|E3DC2G2|B,6A,B,|A,3B,A,3G,|
|E6G2|E3DC2G2|B,6A,B,|C3CC2DE|
|D6zG,|C3EG3C|B,3EG3G|A3Bc3A-|
|AG-G4ED|C3CC2ED|C3CC2DE|D3A,B,2CD|
|C6z2|
